dist/assets/img/svg/icon-fb.svg

<svg width="13" height="22" viewBox="0 0 13 22" fill="none" xmlns="http://www.w3.org/2000/svg">
<path d="M12.158 0.166016H8.88763C7.44203 0.166016 6.05565 0.71874 5.03346 1.7026C4.01127 2.68645 3.43702 4.02085 3.43702 5.41223V8.55995H0.166649V12.7569H3.43702V21.1509H7.7975V12.7569H11.0679L12.158 8.55995H7.7975V5.41223C7.7975 5.13395 7.91236 4.86707 8.11679 4.6703C8.32123 4.47353 8.59851 4.36299 8.88763 4.36299H12.158V0.166016Z" fill="white" fill-opacity="0.7"/>
</svg>

<svg width="13" height="22" fill="none" xmlns="http://www.w3.org/2000/svg"><path d="M12.158.166h-3.27a5.56 5.56 0 00-3.855 1.537 5.148 5.148 0 00-1.596 3.71V8.56H.167v4.197h3.27v8.394h4.36v-8.394h3.27l1.091-4.197h-4.36V5.412c0-.278.114-.545.319-.742.204-.196.482-.307.77-.307h3.271V.166z" fill="#fff" fill-opacity=".7"/></svg>
